X:1
T:Claire Brown's Jig
M:6/8
L:1/8
R:Jig
C:D. Asherman
N:For Claire Parman Brown
N:Copyright 2003 Doug Asherman
K:D
A|:d2 d d2 e|fed BAc|1 d2 d d2 e| fef aAc|d2 d d2 e|
fed BAF| GFG BAG|FEC D2 A:|2 d2 D D2 E|
FEF ABc|d2 d d2 e|fed BAF|GAB AFA|gec d2||
e|:f2 a e2 g|fec Ace|f2 a e2 g|fed e2 e|
f2 a e2 g|fed BAF|1 GAB AFA|gec d2 e:|2 GFG BAG|FEC D2||
